packages/core/src/svgs/tokens/mono/POWR.svg

<svg width="24" height="24" viewBox="0 0 24 24" fill="none" xmlns="http://www.w3.org/2000/svg">
<path opacity="0.9" d="M11.947 2L15.2513 5.30445L11.947 8.6151L8.63501 5.31188L11.947 2Z" fill="white"/>
<path opacity="0.85" d="M6.96394 3.38185L11.504 4.49594L10.39 9.04341L5.84985 7.92935L6.96394 3.37378V3.38185Z" fill="white"/>
<path opacity="0.3" d="M16.8839 3.34351L14.1597 4.07631L15.3885 5.31253L13.1677 7.53266L13.5875 9.08198L18.1045 7.86062L16.8839 3.34351Z" fill="white"/>
<path opacity="0.35" d="M20.4699 6.92929L19.3557 11.4693L14.8076 10.3627L15.9218 5.81519L20.4699 6.92929Z" fill="white"/>
<path opacity="0.4" d="M21.9192 11.9196L18.6842 15.3084L15.3035 12.0807L18.5391 8.69263L21.9192 11.9277V11.9196Z" fill="white"/>
<path opacity="0.45" d="M20.5466 17.0849L16.0065 18.2146L14.877 13.6744L19.417 12.5449L20.5466 17.0849Z" fill="white"/>
<path opacity="0.5" d="M16.9441 20.6187L12.4041 19.5047L13.5107 14.9727L18.0582 16.0861L16.9441 20.6261V20.6187Z" fill="white"/>
<path opacity="0.55" d="M11.9621 22L8.65771 18.6955L11.9621 15.3843L15.2734 18.6955L11.9621 22Z" fill="white"/>
<path opacity="0.6" d="M7.03286 20.7332L5.81152 16.2154L10.3212 14.9946L11.5426 19.5044L7.03286 20.7258V20.7332Z" fill="white"/>
<path opacity="0.65" d="M3.37682 16.9557L4.48347 12.4155L9.03097 13.5297L7.91688 18.0697L3.36938 16.9557H3.37682Z" fill="white"/>
<path opacity="0.7" d="M2.08081 12.1184L5.38526 8.80713L8.69591 12.1184L5.39269 15.4229L2.08081 12.1184Z" fill="white"/>
<path opacity="0.75" d="M3.30188 6.93672L7.82644 5.81519L8.95541 10.3553L4.41535 11.4848L3.28638 6.94478L3.30188 6.93672Z" fill="white"/>
</svg>

<svg xmlns="http://www.w3.org/2000/svg" width="24" height="24" fill="none" viewBox="0 0 24 24">
    <path fill="#fff" d="m11.947 2 3.304 3.304-3.304 3.311-3.312-3.303z" opacity=".9"/>
    <path fill="#fff" d="m6.964 3.382 4.54 1.114-1.114 4.547L5.85 7.93l1.114-4.555z" opacity=".85"/>
    <path fill="#fff" d="m16.884 3.344-2.724.732 1.229 1.237-2.221 2.22.42 1.549 4.517-1.221z" opacity=".3"/>
    <path fill="#fff" d="m20.47 6.93-1.114 4.54-4.548-1.107 1.114-4.548z" opacity=".35"/>
    <path fill="#fff" d="m21.92 11.92-3.236 3.388-3.38-3.227 3.235-3.388 3.38 3.235z" opacity=".4"/>
    <path fill="#fff" d="m20.547 17.085-4.54 1.13-1.13-4.54 4.54-1.13z" opacity=".45"/>
    <path fill="#fff" d="m16.944 20.619-4.54-1.114 1.107-4.532 4.547 1.113-1.114 4.54z" opacity=".5"/>
    <path fill="#fff" d="m11.962 22-3.304-3.305 3.304-3.31 3.311 3.31z" opacity=".55"/>
    <path fill="#fff" d="m7.033 20.733-1.221-4.518 4.51-1.22 1.22 4.51-4.51 1.22z" opacity=".6"/>
    <path fill="#fff" d="m3.377 16.956 1.106-4.54 4.548 1.114-1.114 4.54-4.548-1.114z" opacity=".65"/>
    <path fill="#fff" d="m2.08 12.118 3.305-3.31 3.31 3.31-3.302 3.305z" opacity=".7"/>
    <path fill="#fff" d="m3.302 6.937 4.524-1.122 1.13 4.54-4.54 1.13-1.13-4.54z" opacity=".75"/>
</svg>
